X: 5882
T: Calum's
R: waltz
M: 3/4
K: Gmajor
D>F|G3 A (B>d)|F3 (G A>F)|E3 (c E2)|F4 (A>B)|c3 (d e<g)|d4 (B>G)|E2 (!tenuto!c2 !tenuto!B2)|A4 D>F|
G3 A (B>d)|F3 (G A>F)|E3 (c E2)|F4 (A>B)|c3 (d e<g)|d3 (d B>G)|E2 c2 E>F|G4 (G>F)||
(E3 G) (c<E)|(F3 A) (d<F)|G3 A (B>d)|F4 (A>B)|c3 (d e<g)|d3 (d B>G)|E2 c2 (3BcB|(A3 D) G>F|
(E3 G) (c<E)|(F3 A) (d<F)|G3 A (B>d)|F4 (A>B)|c3 (d e<g)|d3 (d B>G)|E2 (c>D) E>F|G4||

